X:1
T:Helan
T:Helan
T:de fem første takter av Otto Lindblad arr: Emil Nielsen 
C:arr: Einar Ralf
%%score [ 1 2 3 4 ]
L:1/8
Q:1/4=94
M:6/8
K:F
V:1 treble-8 nm="T1"
V:2 treble-8 nm="T2"
V:3 bass nm="B1"
V:4 bass nm="B2"
V:1
"^Andantino" C | A2 A (G>A) G | c2 c c2 B | A2 c f2 g | g2 =B c z c | d3- d2 z || %6
w: Till|skogs en li- * ten|få- gel flög. Från|som- mar- him- len|blå och hög han|sjöng: *|
[M:4/4][Q:1/4=100] A2 c2 F2 z A | G G/ G/ G G A F F2 | A2 c2 F2 z A | G G/ G/ G G F2 z F | %10
w: He- lan går, sjung|hopp fa- de- ra- la- la- la- lej,|He- lan går, sjung|hopp fa- de- ra- la- lej! och|
 G C C C A F F F | G C C C A F F2 | A2 c2 !fermata!f2 !fermata!z f | e e/ e/ e e f4 |] %14
w: den som in- te He- lan tar, han|hel- ler in- te Hal- van får.|He- lan går! Sjung|hopp fa- la- lal- la- lej!|
V:2
 z | z6 | z6 | z6 | z6 | z6 ||[M:4/4] A2 c2 F2 z A | G G/ G/ G G A F F2 | A2 c2 F2 z A | %9
w: ||||||He- lan går, sjung|hopp fa- de- ra- la- la- la- lej,|He- lan går, sjung|
 G G/ G/ G G F2 z F | G C C C A F F F | G C C C A F F2 | A2 c2 !fermata!c2 !fermata!z c | %13
w: hopp fa- de- ra- la- lej! och|den som in- te He- lan tar, han|hel- ler in- te Hal- van får.|He- lan går! Sjung|
 c c/ c/ c c c4 |] %14
w: hopp fa- la- lal- la- lej!|
V:3
 z | z6 | z6 | z6 | z6 | z6 ||[M:4/4] A,2 C2 F,2 z F, | C, C,/ C,/ C, C, F, F, F,2 | %8
w: ||||||He- lan går, sjung|hopp fa- de- ra- la- la- la- lej,|
 A,2 C2 F,2 z F, | C, C,/ C,/ C, C, F,2 z F, | C, C, C, C, F, F, F, F, | C, C, C, C, F, F, F,2 | %12
w: He- lan går, sjung|hopp fa- de- ra- la- lej! och|den som in- te he- lan tar, han|hel- ler in- te Hal- van får.|
 A,2 B,2 !fermata!A,2 !fermata!z A, | B, B,/ B,/ B, B, A,4 |] %14
w: He- lan går! Sjung|hopp fa- la- lal- la- lej!|
V:4
 z | z6 | z6 | z6 | z6 | z6 ||[M:4/4] A,2 C2 F,2 z F, | C, C,/ C,/ C, C, F, F, F,2 | %8
w: ||||||He- lan går, sjung|hopp fa- de- ra- la- la- la- lej,|
 A,2 C2 F,2 z F, | C, C,/ C,/ C, C, F,2 z F, | C, C, C, C, F, F, F, F, | C, C, C, C, F, F, F,2 | %12
w: He- lan går, sjung|hopp fa- de- ra- la- lej! och|den som in- te he- lan tar, han|hel- ler in- te Hal- van får.|
 A,2 G,2 !fermata!F,2 !fermata!z F, | G, G,/ G,/ C, C, [F,,F,]4 |] %14
w: He- lan går! Sjung|hopp fa- la- lal- la- lej!|

